X: 735
T: Paddy's Surprise   #2
R: reel
%S: s:2 b:16(8+8)
B: Francis O'Neill: "The Dance Music of Ireland" (1907) #735
Z: Frank Nordberg e http://www.musicaviva.com
F: http://www.musicaviva.com/abc/tunes/ireland/oneill-1001/0735/oneill-1001-0735-1.abc
N: Compacted via repeats and 2 types of multiple endings [JC]
M: C|
L: 1/8
K: G
[|] (3(DEF) "^A"|:: G2(BA) GABc |[1 dBec dBAB :|[2 dBAB GFED :|[3 dBec d2(3(def) | gfge dBge | dBAB G2 ||
|| (3(def) "^B"|: gfgd edBd | gabg agef |[1 gfgd edBd | cABG AGEG :|2 gfge dBge | dBAB G2 |] 
